assets/icons/qvision/drive_file_move.svg

<svg xmlns="http://www.w3.org/2000/svg" height="24" viewBox="0 0 24 24" width="24"><path d="M0 0h24v24H0V0z" fill="none"/><path d="M20 6h-8l-2-2H4c-1.1 0-2 .9-2 2v12c0 1.1.9 2 2 2h16c1.1 0 2-.9 2-2V8c0-1.1-.9-2-2-2zm-6 12v-3h-4v-4h4V8l5 5-5 5z"/></svg>

<svg width="24" height="24" viewBox="0 0 24 24" fill="none" xmlns="http://www.w3.org/2000/svg">
<g clip-path="url(#clip0_147_2850)">
<path d="M20 6H12L10 4H4C2.9 4 2 4.9 2 6V18C2 19.1 2.9 20 4 20H20C21.1 20 22 19.1 22 18V8C22 6.9 21.1 6 20 6ZM14 18V15H10V11H14V8L19 13L14 18Z" fill="#323232"/>
</g>
<defs>
<clipPath id="clip0_147_2850">
<rect width="24" height="24" fill="white"/>
</clipPath>
</defs>
</svg>
